symbolic/24x24/apps/hydrogen.svg

<svg xmlns="http://www.w3.org/2000/svg" width="24" height="24" version="1">
 <rect style="fill:#b5c0df" width="20" height="20" x="2" y="2" rx="1" ry="1"/>
 <path style="opacity:0.2;fill:#ffffff" d="M 3,2 C 2.446,2 2,2.446 2,3 v 0.5 c 0,-0.554 0.446,-1 1,-1 h 18 c 0.554,0 1,0.446 1,1 V 3 C 22,2.446 21.554,2 21,2 Z"/>
 <path style="opacity:0.2" d="m 3,22.5 c -0.554,0 -1,-0.446 -1,-1 V 21 c 0,0.554 0.446,1 1,1 h 18 c 0.554,0 1,-0.446 1,-1 v 0.5 c 0,0.554 -0.446,1 -1,1 z"/>
 <rect style="fill:#314277" width="4" height="12" x="4" y="4" rx=".571" ry=".545"/>
 <rect style="fill:#314277" width="10" height="12" x="10" y="4" rx=".526" ry=".545"/>
 <rect style="fill:#314277" width="4" height="10.5" x="8" y="-15" rx=".571" ry=".5" transform="rotate(90)"/>
 <path style="opacity:0.2" d="m 12.460938,6.499998 c -0.255693,0 -0.460938,0.223 -0.460938,0.5 v 1 c 0,0.277 0.205245,0.5 0.460938,0.5 H 16 v 1 h -3.539062 c -0.0313,0 -0.05837,0.013159 -0.08789,0.019531 -0.0285,0.00585 -0.05776,0.00815 -0.08399,0.017578 -0.0076,0.0033 -0.0141,0.008 -0.02148,0.011719 C 12.110206,9.6134612 12,9.7374276 12,9.8847636 v 0.1152344 1 2 1 0.115234 c 0,0.147336 0.110206,0.271303 0.267578,0.335938 0.0074,0.0037 0.01389,0.0084 0.02148,0.01172 0.02623,0.0094 0.05548,0.01173 0.08399,0.01758 0.02952,0.0064 0.05659,0.01953 0.08789,0.01953 h 5.078124 C 17.794755,14.499998 18,14.276998 18,13.999998 v -1 c 0,-0.277 -0.205245,-0.5 -0.460938,-0.5 H 14 v -1 h 2.5 1 0.03906 c 0.0313,0 0.05837,-0.01316 0.08789,-0.01953 0.0285,-0.0059 0.05776,-0.0082 0.08398,-0.01758 0.0076,-0.0033 0.0141,-0.008 0.02148,-0.01172 C 17.889794,11.386535 18,11.262568 18,11.115232 v -0.115234 -1 -2 -1 -0.1152344 c 0,-0.147336 -0.110206,-0.2713024 -0.267578,-0.3359375 -0.0074,-0.00372 -0.01389,-0.00842 -0.02148,-0.011719 -0.02623,-0.00943 -0.05548,-0.011727 -0.08398,-0.017578 -0.02953,-0.00637 -0.0566,-0.019531 -0.0879,-0.019531 H 17.5 h -1 z"/>
 <rect style="opacity:0.3;fill:#314277" width="2" height="2" x="5" y="17" rx=".5" ry=".5"/>
 <rect style="opacity:0.56000001;fill:#314277" width="2" height="2" x="8" y="17" rx=".5" ry=".5"/>
 <rect style="opacity:0.81999966;fill:#314277" width="2" height="2" x="11" y="17" rx=".5" ry=".5"/>
 <rect style="opacity:0.56000001;fill:#314277" width="2" height="2" x="14" y="17" rx=".5" ry=".5"/>
 <rect style="opacity:0.3;fill:#314277" width="2" height="2" x="17" y="17" rx=".5" ry=".5"/>
 <rect style="fill:#ffffff" width="6" height="2" x="12" y="6" rx=".462" ry=".5"/>
 <rect style="fill:#ffffff" width="6" height="2" x="12" y="12" rx=".462" ry=".5"/>
 <rect style="fill:#ffffff" width="5" height="2" x="9" y="-14" rx=".385" ry=".5" transform="rotate(90)"/>
 <rect style="fill:#ffffff" width="6" height="2" x="-18" y="-11" rx=".462" ry=".5" transform="scale(-1)"/>
 <rect style="fill:#ffffff" width="5" height="2" x="6" y="-18" rx=".385" ry=".5" transform="rotate(90)"/>
 <path style="opacity:0.1" d="M 8 11.5 L 8 12 L 10 12 L 10 11.5 L 8 11.5 z M 4 14.955078 L 4 15.455078 C 4 15.75726 4.2556942 16 4.5722656 16 L 7.4277344 16 C 7.7443058 16 8 15.75726 8 15.455078 L 8 14.955078 C 8 15.25726 7.7443058 15.5 7.4277344 15.5 L 4.5722656 15.5 C 4.2556942 15.5 4 15.25726 4 14.955078 z M 10 14.955078 L 10 15.455078 C 10 15.75726 10.233812 16 10.525391 16 L 19.474609 16 C 19.766188 16 20 15.75726 20 15.455078 L 20 14.955078 C 20 15.25726 19.766188 15.5 19.474609 15.5 L 10.525391 15.5 C 10.233812 15.5 10 15.25726 10 14.955078 z"/>
 <path style="opacity:0.1;fill:#ffffff" d="M 4.5722656,3.5 C 4.2556942,3.5 4,3.74274 4,4.0449219 v 0.5 C 4,4.24274 4.2556942,4 4.5722656,4 H 7.4277344 C 7.7443058,4 8,4.24274 8,4.5449219 v -0.5 C 8,3.74274 7.7443058,3.5 7.4277344,3.5 Z m 5.9531254,0 C 10.233812,3.5 10,3.74274 10,4.0449219 v 0.5 C 10,4.24274 10.233812,4 10.525391,4 h 8.949218 C 19.766188,4 20,4.24274 20,4.5449219 v -0.5 C 20,3.74274 19.766188,3.5 19.474609,3.5 Z M 8,7.5 V 8 h 2 V 7.5 Z"/>
</svg>

<svg xmlns="http://www.w3.org/2000/svg" width="24" height="24" version="1"><rect style="fill:#b5c0df" width="20" height="20" x="2" y="2" rx="1" ry="1"/><path style="opacity:.2;fill:#fff" d="M3 2c-.554 0-1 .446-1 1v.5c0-.554.446-1 1-1h18c.554 0 1 .446 1 1V3c0-.554-.446-1-1-1z"/><path style="opacity:.2" d="M3 22.5c-.554 0-1-.446-1-1V21c0 .554.446 1 1 1h18c.554 0 1-.446 1-1v.5c0 .554-.446 1-1 1z"/><rect style="fill:#314277" width="4" height="12" x="4" y="4" rx=".571" ry=".545"/><rect style="fill:#314277" width="10" height="12" x="10" y="4" rx=".526" ry=".545"/><rect style="fill:#314277" width="4" height="10.5" x="8" y="-15" rx=".571" ry=".5" transform="rotate(90)"/><path style="opacity:.2" d="M12.46 6.5c-.255 0-.46.223-.46.5v1c0 .277.205.5.46.5H16v1h-3.54c-.03 0-.057.013-.087.02-.028.005-.058.008-.084.017-.008.003-.014.008-.021.012-.158.064-.268.188-.268.336v4.23c0 .148.11.272.268.336.007.004.013.009.021.012.026.01.056.012.084.017.03.007.057.02.088.02h5.078c.256 0 .461-.223.461-.5v-1c0-.277-.205-.5-.46-.5H14v-1h3.54c.03 0 .057-.013.087-.02.028-.005.058-.008.084-.017.008-.003.014-.008.021-.012.158-.064.268-.188.268-.336v-4.23c0-.148-.11-.272-.268-.336-.007-.004-.013-.009-.021-.012-.026-.01-.056-.012-.084-.017-.03-.007-.057-.02-.088-.02H16.5z"/><rect style="opacity:.3;fill:#314277" width="2" height="2" x="5" y="17" rx=".5" ry=".5"/><rect style="opacity:.56000001;fill:#314277" width="2" height="2" x="8" y="17" rx=".5" ry=".5"/><rect style="opacity:.81999966;fill:#314277" width="2" height="2" x="11" y="17" rx=".5" ry=".5"/><rect style="opacity:.56000001;fill:#314277" width="2" height="2" x="14" y="17" rx=".5" ry=".5"/><rect style="opacity:.3;fill:#314277" width="2" height="2" x="17" y="17" rx=".5" ry=".5"/><rect style="fill:#fff" width="6" height="2" x="12" y="6" rx=".462" ry=".5"/><rect style="fill:#fff" width="6" height="2" x="12" y="12" rx=".462" ry=".5"/><rect style="fill:#fff" width="5" height="2" x="9" y="-14" rx=".385" ry=".5" transform="rotate(90)"/><rect style="fill:#fff" width="6" height="2" x="-18" y="-11" rx=".462" ry=".5" transform="scale(-1)"/><rect style="fill:#fff" width="5" height="2" x="6" y="-18" rx=".385" ry=".5" transform="rotate(90)"/><path style="opacity:.1" d="M8 11.5v.5h2v-.5H8zm-4 3.455v.5c0 .302.256.545.572.545h2.856A.558.558 0 0 0 8 15.455v-.5a.558.558 0 0 1-.572.545H4.572A.558.558 0 0 1 4 14.955zm6 0v.5c0 .302.234.545.525.545h8.95a.534.534 0 0 0 .525-.545v-.5a.534.534 0 0 1-.525.545h-8.95a.534.534 0 0 1-.525-.545z"/><path style="opacity:.1;fill:#fff" d="M4.572 3.5A.558.558 0 0 0 4 4.045v.5C4 4.243 4.256 4 4.572 4h2.856c.316 0 .572.243.572.545v-.5a.558.558 0 0 0-.572-.545zm5.953 0a.534.534 0 0 0-.525.545v.5c0-.302.234-.545.525-.545h8.95c.291 0 .525.243.525.545v-.5a.534.534 0 0 0-.525-.545zM8 7.5V8h2v-.5z"/></svg>
